public/assets/logos/sprint-white.svg

<svg fill="none" height="30" viewBox="0 0 30 30" width="30" xmlns="http://www.w3.org/2000/svg"><path clip-rule="evenodd" d="m12.413 12.8272c-1.0098-2.729-3.52617-8.4178-7.22804-9.8272 2.40974 2.65962 5.98484 7.937 7.22804 9.8272zm.9492 3.9959c.4311-2.8483.1777-6.2869-.3727-8.4436-.299-1.17447-1.3578-2.50005-2.3375-2.91443 1.2841 3.64441 2.3863 8.83423 2.7102 11.35803zm-.488 2.8627c2.3061-2.9683 4.12-6.4555 4.12-8.9599 0-1.30884-.9376-2.2224-2.16-2.91658.024 2.72138-.9187 9.10278-1.96 11.87648zm-7.56214 7.3142c5.40484-1.808 13.24004-6.0205 18.68934-9.784.4573-.3146.8136-.607.8136-1.1183 0-.8892-1.6284-2.081-2.4186-2.5556-4.2878 4.4572-12.82151 11.1359-17.08434 13.4579zm14.82674-12.7834c-1.6386 2.3585-6.4803 6.6934-9.8131 8.9973 2.3625-2.4619 6.6624-8.0785 8.5761-12.589.7988.4854 1.9092 1.1825 1.9092 2.1346 0 .5097-.2203.8197-.5354 1.2631v.0001c-.0439.0617-.0896.126-.1368.1939z" fill="#fff" fill-rule="evenodd"/></svg>

<svg width="30" height="30" viewBox="0 0 30 30" fill="none" xmlns="http://www.w3.org/2000/svg">
<path fill-rule="evenodd" clip-rule="evenodd" d="M12.413 12.8272C11.4032 10.0982 8.88683 4.4094 5.18496 3C7.5947 5.65962 11.1698 10.937 12.413 12.8272ZM13.3622 16.8231C13.7933 13.9748 13.5399 10.5362 12.9895 8.3795C12.6905 7.20503 11.6317 5.87945 10.652 5.46507C11.9361 9.10948 13.0383 14.2993 13.3622 16.8231ZM12.8742 19.6858C15.1803 16.7175 16.9942 13.2303 16.9942 10.7259C16.9942 9.41706 16.0566 8.5035 14.8342 7.80932C14.8582 10.5307 13.9155 16.9121 12.8742 19.6858ZM5.31206 27C10.7169 25.192 18.5521 20.9795 24.0014 17.216C24.4587 16.9014 24.815 16.609 24.815 16.0977C24.815 15.2085 23.1866 14.0167 22.3964 13.5421C18.1086 17.9993 9.57489 24.678 5.31206 27ZM20.1388 14.2166C18.5002 16.5751 13.6585 20.91 10.3257 23.2139C12.6882 20.752 16.9881 15.1354 18.9018 10.6249C19.7006 11.1103 20.811 11.8074 20.811 12.7595C20.811 13.2692 20.5907 13.5792 20.2756 14.0226L20.2756 14.0227C20.2317 14.0844 20.186 14.1487 20.1388 14.2166Z" fill="white"/>
</svg>
